X: 21715
T: Kincaldrum's
R: reel
M: 4/4
K: Gmajor
|:f|g2 dc B2 AG|FGAB cAAf|gdec B2 (AG)|DFAc BGG:|
|:B|DGBG AGBG|DGBd cAAc|Bdef gedc|BdAc BGG:|

